!! 00000] TT[00
!! NN
!!!OTL: Yuanyang jia laodiao
!!!ARE: Asia, China,ÿShandong, Huimin
!! Ethnic Group: Han
!! III, 407, unten)
!!!SCT: C0316B
!!!YEM: Copyright 1995, estate of Helmut Schaffrath.
**kern
*ICvox
*Ivox
*M2/4
*k[f#]
*G:
{8.b
16a
8b
8b
=1
4.r
16a
16b
=2
8.dd
16a
4b}
=3
{8b
16b
16a
8b
8aa
=4
4.gg
8ee
=5
8dd
8ee
4gg
=6
4b
8r
8a
=7
2g}
=8
{8b
16b
16a
8b
8a
=9
8dd
8a
4b
=10
8dd
8b
8dd
8r}
=11
{8ddd
8aa
4bb
=12
4bb
4bb
=13
[2bb
=14
2bb_
=15
4bb]}
{8bb
16bb
16ddd
=16
8.bb
16aa
4gg
=17
8.aa
16bb
8dd
8ee
=18
4gg
4gg
=19
4gg
[4gg
=20
2gg_
=21
8gg]}
{8gg
8ff#
8gg
=22
8bb
8ee
4gg
=23
8dd
8b
4dd
=24
8gg
16gg
16gg
8dd
8gg
=25
8dd
8b
8dd}
{8ee
=26
4dd
4gg
=27
8b
8b
4r
=28
4dd
8r
8a
=29
16b
8.r
4r}
=30
{8.gg
16ee
8gg
8gg
=31
8dd
8ee
4dd
=32
8.gg
16gg
8ee
8gg
=33
8.ee
16b
4dd}
=34
{8r
4gg
8gg
=35
4dd
4gg
=36
8.aa
16gg
4aa}
=37
{8r
4aa
8aa
=38
4gg
4aa
=39
8ff#
[4.ff#
=40
2ff#_
=41
8ff#]}
{8ff#
8ff#
8ff#
=42
4ee
[4ee
=43
4.ee]
8ee
=44
4a
4dd
=45
8dd
8gg
[4b}
=46
{8b]
4dd
8a
=47
8.b
16a
8g
8a
=48
2g}
=49
{8b
16b
16dd
8b
8a
=50
2b
=51
4dd
8.b
16a
=52
2b}
=53
{8dd
16dd
16b
8dd
8ee
=54
8ff#
8dd
8ee
8r}
=55
{8r
16b
16dd
8b
8a
=56
8bb
8gg#
4aa
=57
4aa
4aa
=58
8aa
4dd
8ee
=59
2gg}
==
!!!AGN: Wuge, Yangge, Guzi yangge. Minjian gushi
!! unter gleicher Signature A notiert
!! Phrasierung pruefen! Wenig Verzierungen Atemzeichen wischenspiele weggelassen
!!!ONB: ESAC (Essen Associative Code) Database: CHINA
!!!AMT: simple duple
!!!AIN: vox
!!!EED: Helmut Schaffrath
!!!EEV: 1.0
*-
!!!ONB: Tied note syntax fixed by Craig Sapp, 2004/05/03/
!!!ONB: Removed strange mixture of notes and comments found by Marcus Pierce 2004/06/05
